!!!COM: Palestrina, Giovanni Perluigi da
!!!OPR: Missa In semidupl. maj. (II)
!!!OMD: Credo
!!!OTL: Confiteor
**kern	**kern	**kern	**kern	**kern
*Ibass	*Itenor	*Itenor	*Icalto	*Icant
!Bassus	!Tenor 2	!Tenor 1	!Altus	!Cantus
*clefF4	*clefGv2	*clefGv2	*clefG2	*clefG2
*k[b-]	*k[b-]	*k[b-]	*k[b-]	*k[b-]
*F:ion	*F:ion	*F:ion	*F:ion	*F:ion
*M4/2	*M4/2	*M4/2	*M4/2	*M4/2
=139	=139	=139	=139	=139
0r	1F	0r	0r	0r
.	2A	.	.	.
.	2B-	.	.	.
=140	=140	=140	=140	=140
1C	1.c	0r	0r	0r
2E	.	.	.	.
2F	2A	.	.	.
=141	=141	=141	=141	=141
2G	2B-	0r	0r	0r
2E	2c	.	.	.
2F	1d	.	.	.
2G	.	.	.	.
=142	=142	=142	=142	=142
4A	4c	0r	1F	0r
4G	4B-	.	.	.
4F	4A	.	.	.
4E	4G	.	.	.
4D	4F	.	2A	.
4C	4E	.	.	.
2D	2F	.	2B-	.
=143	=143	=143	=143	=143
1C	4G	0r	1.c	2r
.	4F	.	.	.
.	4E	.	.	2c
.	4D	.	.	.
1AA	2C	.	.	2e
.	2c	.	2A	2f
=144	=144	=144	=144	=144
2GG	2d	0r	2B-	2g
2C	2G	.	2c	2e
1BB-	1B-	.	1d	2f
.	.	.	.	2g
=145	=145	=145	=145	=145
1FF	1A	1F	1.c	1.a
1r	1r	2A	.	.
.	.	2B-	2d	4g
.	.	.	.	4f
=146	=146	=146	=146	=146
0r	0r	2c	2e	1a
.	.	2A	1f	.
.	.	2B-	.	1g
.	.	2c	2e	.
=147	=147	=147	=147	=147
1D	2r	1d	1f	0f
.	1A	.	.	.
1F	.	2c	1r	.
.	[2c	2A	.	.
=148	=148	=148	=148	=148
2E	2c]	2G	2r	0r
1D	2B-	4F	2d	.
.	.	4G	.	.
.	1A	4A	2f	.
.	.	4B-	.	.
[2C	.	2c	[2e	.
=149	=149	=149	=149	=149
2C]	1.G	2C	2e]	0r
2BB	.	2D	2d	.
2C	.	2E	2c	.
2D	2F	2F	2B	.
=150	=150	=150	=150	=150
0C	2G	2E	2c	0r
.	2A	2.F	2c	.
.	1G	.	1c	.
.	.	8E	.	.
.	.	8D	.	.
.	.	2E	.	.
=151	=151	=151	=151	=151
0FF	0F	2.F	1A	2r
.	.	.	.	1a
.	.	4G	.	.
.	.	1A	1c	.
.	.	.	.	2cc
=152	=152	=152	=152	=152
0r	2r	0r	2d	2b-
.	2F	.	2f	2a
.	2G	.	2e	2g
.	[2B-	.	4d	2f
.	.	.	4c	.
=153	=153	=153	=153	=153
1r	2B-]	0r	4d	2g
.	.	.	4e	.
.	2A	.	1f	2a
2r	2B-	.	.	1g
2C	2c	.	2e	.
=154	=154	=154	=154	=154
1D	1.F	2r	2d	1f
.	.	1A	2d	.
2.F	.	.	1c	1a
.	2A	2c	.	.
4F	.	.	.	.
=155	=155	=155	=155	=155
2BB-	1F	2B-	2d	2b-
2FF	.	2A	2c	2.cc
2C	2E	2G	2e	.
.	.	.	.	4b-
2FF	2C	2F	2f	2a
=156	=156	=156	=156	=156
0C	2E	2G	4e	2g
.	.	.	4d	.
.	2F	2A	4c	1f
.	.	.	4B-	.
.	1G	1G	1c	.
.	.	.	.	2e
=157	=157	=157	=157	=157
[0FF	[0A	[0F	[0c	[0f
=158	=158	=158	=158	=158
0FF]	0A]	0F]	0c]	0f]
*-	*-	*-	*-	*-
!!!CDT: 1525/^1526/-1594/2/2
!!!OCY: Italia
!!!AGN: Mass (Paraphrase)
!!!AST: renaissance, vocal
!!!ASW: Gregorian Mass
!!!PWK: Masses, Book Mantuan II
!!!RNB: Cadence finals: C
!!!YOR: Le Opere Complete, v. 19, p. 87
!!!YOO: Rome, Italy: Fratelli Scalera
!!!END: 1992//
!!!EED: John Miller
!!!YEC: Copyright 2000, John Miller
!!!YEN: United States of America
!!!YEM: Rights to all derivative electronic formats reserved.
!!!YEM: Refer to licensing agreement for further details.
!!!YEM: This file must be accompanied by the licensing agreement.
!!!YEM: A copy of the licensing agreement may be found at http://www.music-cog.ohio-state.edu/HumdrumDatabases/Palestrina/license.txt
!!!EMD: converted to Humdrum by Bret Aarden
